X:1
T:Title
%%score 1 { 2 | 3 }
L:1/8
Q:1/4=110
M:4/4
K:Eb
V:1 treble nm="Grand Piano, Unnamed-000"
V:2 bass nm="Choir Pad, Monsell (Barnby), SM"
V:3 bass 
V:1
 [EG]2 [EG]2 [EA]2 [EB]2 | [DF]2 [EG]6 | [FG]2 [EG]2 [Ec]2 [EB]2 | [D=A]2 [DG]6 | %4
w: By~Joseph~Barnby,~1868 * * *||||
 [DB]2 [Ee]2 [Gd]2 [Gc]2 | [GB]2 [GB]2- [GB]A [EA]2 | [EF]2 [EG]2 [EA]2 [EB]2 | [DF]2 [EG]6- | %8
w: ||||
 [EG]2 z2 z4 |] %9
w: |
V:2
 B,2 B,2 A,2 F,2 | B,2 B,6 | =B,2 C2 G,2 _G,2 | C2 B,6 | A,2 G,2 B,2[K:treble] E2 | _D2 D2- DC C2 | %6
 A,2 B,2 C2 F,2 | B,2 B,6- | B,2 z2 z4 |] %9
V:3
 E,2 E,2 C,2 B,,2 | B,,2 E,6 | D,2 C,2 C,2 D,2 | D,2 G,6 | F,2 E,2 E,2 E,2 | %5
 E,2 A,,2- A,,A,, A,,2 | C,2 B,,2 B,,2 B,,2 | B,,2 E,6- | E,2 z2 z4 |] %9

